!!!COM: Joplin, Scott
!!!CDT: 1868/11/24/-1917/04/01/
!!!OTL: Eugenia
!!!ONB: Rag
!!!ODT: 1901///
**kern	**kern
*staff2	*staff1
*Ipiano	*Ipiano
*>[I,A,A1,A,A2,B,B1,B,B2,C,D,D1,D,D2,E,E1,E,E2]	*>[I,A,A1,A,A2,B,B1,B,B2,C,D,D1,D,D2,E,E1,E,E2]
*>I	*>I
*clefF4	*clefG2
*k[b-e-a-d-]	*k[b-e-a-d-]
*M2/4	*M2/4
*MM90	*MM90
=1-	=1-
8E-L	8e-L
[8cJ	[8ccJ
16cLL]	16ccLL]
16B-	16b-
16A-	16a-
16GJJ	16gJJ
=2	=2
16FLK	16fLK
8E-	8e-
16D-Jk	16d-Jk
8CL	8cL
16BB-L	16B-L
16AA-JJ	16A-JJ
=3	=3
4EE-	(16GLL
.	16A-
.	16B-
.	16cJJ
16E-LL	16d-LL
16D-	16e-
16C	16f
16BB-JJ	16gJJ
=4	=4
8AA-L	8a-)
8E- 8A- 8cJ	8r
8EE-L	4r
8E- 8A- 8cJ	.
=5!|:	=5!|:
*>A	*>A
8AA-L	8a- 8cc
8E- 8A- 8cJ	4a- 4cc
8EE-L	.
8E- 8A- 8cJ	8cc 8ee-
=6	=6
8AA-L	16bn (16ffLK
.	8cc 8ee-)
8E- 8A- 8cJ	.
.	16b (16ffJk
8EE-L	16cc 16ee-LL)
.	16b (16ffJ
8E- 8A- 8cJ	8cc 8ee-J)
=7	=7
8DD-L	16een (16bb-LK
.	8ff 8aa-)
8F 8A- 8d-J	.
.	16ee (16bb-Jk
8DD-L	16ff 16aa-LL)
.	16ee (16bb-
8F 8A- 8d-J	16ff 16aa-)
.	[16cc [16ee-JJ
=8	=8
*	*^
8AA-L	2cc] 2ee-]	8r
8E- 8A- 8cJ	.	(16e-LL
.	.	16fJJ
8EE-L	.	16gLL
.	.	16a-
8E- 8A- 8cJ	.	16b-
.	.	16bnJJ)
*	*v	*v
=9	=9
8AA-L	8a- 8cc
8E- 8A- 8cJ	4a- 4cc
8EE-L	.
8E- 8A- 8cJ	8cc 8ee-
=10	=10
8AA-L	16bn (16ffLK
.	8cc 8ee-)
8E- 8A- 8cJ	.
.	16b (16ffJk
8AAnL	16cc 16ee-LL)
.	16cc 16ee-J
8F# 8An 8e-J	8cc 8ee-J
=11	=11
*	*^
8BB-L	16ee-LK	16r
.	8b-	8.g
8G 8B- 8e-J	.	.
.	16ee-Jk	.
8BB-L	16ddnLL	8a-L
.	16ee-J	.
8B- 8dnJ	8ffJ	8a-J
*	*v	*v
=12	=12
8E- 8e-L	[4g [4ee-
8D- 8d-J	.
8C 8cL	16g] 16ee-LL]
.	16e-
8BB- 8B-J	16g
.	16dd-JJ
=13	=13
8AA- 8A-L	8a- 8cc
8E- 8A- 8cJ	4a- 4cc
8EE-L	.
8E- 8A- 8cJ	8cc 8ee-
=14	=14
8AA-L	16bn (16ffLK
.	8cc 8ee-)
8E- 8A- 8cJ	.
.	16b (16ffJk
8EE-L	16cc 16ee-LL)
.	16b (16ffJ
8E- 8A- 8cJ	8cc 8ee-J)
=15	=15
8DD-L	16een (16bb-LK
.	8ff 8aa-)
8F 8A- 8d-J	.
.	16ee (16bb-Jk
8D- 8d-L	16ff 16aa-LL)
.	16ff 16aa-
8D- 8d-J	16ff 16gg 16bb-
.	(16ee [16gg [16cccJJ
=16	=16
*	*^
8C 8cL	4een) 4gg] 4ccc_	16r
.	.	16ccLL
8GG 8GJ	.	16een
.	.	16ggJJ
8CC 8C	8cccL	8ccc]
8r	16ggL	8r
.	16aa-JJ	.
*	*v	*v
=17	=17
8DD- 8D-L	16een (16bb-LK
.	8ff 8aa-)
8F 8A- 8d-J	.
.	16ee (16bb-Jk
8DD- 8D-L	16ff 16aa-LL)
.	16ee (16bb-
8F 8A- 8d-J	16ff 16aa-)
.	[16cc [16ee-JJ
=18	=18
8AA- 8A-L	16cc] 16ee-LL]
.	16dd- 16ff
8E- 8A- 8cJ	16cc 16ee-
.	16b- 16dd-JJ
8AA- 8A-L	16a- 16ccLK
.	8cc 8ee-
8E- 8A- 8cJ	.
.	16cc 16ee-Jk
=19	=19
8EE- 8E-L	16an (16ee-LK
.	8b- 8dd-)
8E- 8G 8d-J	.
.	16a (16ee-Jk
8EE- 8E-L	16b- 16dd-LL)
.	16d- 16g 16ccJ
8EE- 8E-J	8d- 8g 8b-J
=20	=20
*>A1	*>A1
*^	*
[4E-	8AA-L	[4c [4a-
.	8EE-J	.
8E-]	8FFL	8c] 8a-]
8r	8GGJ	8r
*v	*v	*
=21:|!	=21:|!
*>A2	*>A2
8AA- 8A-L	4c 4a-
8EE- 8E-J	.
8AAA- 8AA-	8a- 8cc 8ee- 8aa-L
8r	16e-L
.	16enJJ
=22!|:	=22!|:
*>B	*>B
8EE- 8E-L	16fLL
.	16f#
8E- 8B- 8d-J	16g
.	[16g [16b-JJ
8GG 8GL	16g] 16b-LL]
.	16ee-
8E- 8G 8d-J	16dd-
.	16b-JJ
=23	=23
8BB- 8B-L	16fLL
.	16f#
8E- 8G 8B- 8d-J	16g
.	[16g [16ccJJ
8BB- 8B-L	16g] 16ccLL]
.	16b-
8BBn 8BnJ	16fn
.	16gJJ
=24	=24
8C 8cL	16a-LL
.	16e-
8E- 8A- 8cJ	16f
.	16gJJ
8EE- 8E-L	16a-LL
.	16an
8E- 8A- 8cJ	16b-
.	16bnJJ
=25	=25
8AA- 8A-L	16ccLL
.	16bn
8E- 8A- 8cJ	16cc
.	[16cc [16ffJJ
8EE- 8E-L	16cc] 16ffLL]
.	16ee-
8E- 8A- 8cJ	16b-
.	16ccJJ
=26	=26
8BB- 8B-L	16dd-LK
.	8bb-
8E- 8G 8d-J	.
.	16ccJk
8EE- 8E-L	16dd-LK
.	8bb-
8E- 8G 8d-J	.
.	16ccJk
=27	=27
8BB- 8B-L	16dd-LK
.	8bb-
8E- 8G 8d-J	.
.	16aa-Jk
8EE- 8E-L	16ggLL
.	16ff
8GG 8GJ	16ee-
.	16dd-JJ
=28	=28
8AA- 8A-L	16ccLK
.	8aa-
8E- 8A- 8cJ	.
.	16bnJk
8EE- 8E-L	16ccLK
.	8aa-
8E- 8A- 8cJ	.
.	16bJk
=29	=29
8AA- 8A-L	16ccLK
.	8aa-
8E- 8A- 8cJ	.
.	16ffJk
8EE- 8E-L	16ee-LL
.	16cc
8E- 8A- 8cJ	16b-
.	16a-JJ
=30	=30
8FF 8FL	16gLL
.	16g#
8F 8An 8e-J	16an
.	[16a [16ffJJ
8AAn 8AL	16a] 16ffLL]
.	16ee-
8F 8A 8e-J	16cc
.	16aJJ
=31	=31
8C 8cL	16gLL
.	16g#
8F 8An 8e-J	16an
.	[16a [16ffJJ
8FF 8FL	16a] 16ffLL]
.	16cc 16ee-
8F 8A 8e-J	16a 16ff
.	16cc 16ee-JJ
=32	=32
8BB-L	16b- 16dd-LL
.	16an 16cc
8F 8B- 8d-J	16b- 16dd-
.	[16fJJ
8D-L	16fLL]
.	16a
8F 8B- 8d-J	16b-
.	16dd-JJ
=33	=33
8BB-L	16ffLL
.	16cc
8F 8B-J	16dd-
.	[16b-JJ
4D- 4F 4B-	16b-LL]
.	16f
.	16d-
.	16B-JJ
=34	=34
16DnLL	16BnLL
16F	16dn
16A-	16f
16BnJJ	16a-JJ
16dnLK	16bnLK
8d	8b
[16dJk	[16bJk
=35	=35
*	*^
16d]	16bLL]	16r
8.r	16ddn	16fLL
.	16ff	16a-
.	16aa-JJ	16bnJJ
4r	8bbn	8dd
.	8r	8r
=36	=36	=36
8r	16cccLL	8a- 8ee-
.	16aa-	.
8r	16ee-	8r
.	[16ccJJ	.
4r	16ccLL]	4r
.	16a-	.
.	16c	.
.	16e-JJ	.
*	*v	*v
=37	=37
*>B1	*>B1
8EE- 8E-L	16d- 16e- 16g 16b-LK
.	8d- 8e- 8g 8b-
8EE- 8E-J	.
.	[16c [16e- [16a-Jk
8AA- 8A-	8c] 8e-] 8a-L]
8r	16e-L
.	16enJJ
=38:|!	=38:|!
*>B2	*>B2
8EE- 8E-L	16d- 16e- 16g 16b-LK
.	8d- 8e- 8g 8b-
8EE- 8E-J	.
.	[16c [16e- [16a-Jk
8AA- 8A-	8c] 8e-] 8a-L]
8r	8e-J
=39	=39
*>C	*>C
8AA-L	8a- 8cc
8E- 8A- 8cJ	4a- 4cc
8EE-L	.
8E- 8A- 8cJ	8cc 8ee-
=40	=40
8AA-L	16bn (16ffLK
.	8cc 8ee-)
8E- 8A- 8cJ	.
.	16b (16ffJk
8EE-L	16cc 16ee-LL)
.	16b (16ffJ
8E- 8A- 8cJ	8cc 8ee-J)
=41	=41
8DD-L	16een (16bb-LK
.	8ff 8aa-)
8F 8A- 8d-J	.
.	16ee (16bb-Jk
8DD-L	16ff 16aa-LL)
.	16ee (16bb-
8F 8A- 8d-J	16ff 16aa-)
.	[16cc [16ee-JJ
=42	=42
*	*^
8AA-L	2cc] 2ee-]	8r
8E- 8A- 8cJ	.	(16e-LL
.	.	16fJJ
8EE-L	.	16gLL
.	.	16a-
8E- 8A- 8cJ	.	16b-
.	.	16bnJJ)
*	*v	*v
=43	=43
8AA-L	8a- 8cc
8E- 8A- 8cJ	4a- 4cc
8EE-L	.
8E- 8A- 8cJ	8cc 8ee-
=44	=44
8AA-L	16bn (16ffLK
.	8cc 8ee-)
8E- 8A- 8cJ	.
.	16b (16ffJk
8AAnL	16cc 16ee-LL)
.	16cc 16ee-J
8F# 8An 8e-J	8cc 8ee-J
=45	=45
*	*^
8BB-L	16ee-LK	16r
.	8b-	8.g
8G 8B- 8e-J	.	.
.	16ee-Jk	.
8BB-L	16ddnLL	8a-L
.	16ee-J	.
8B- 8dnJ	8ffJ	8a-J
*	*v	*v
=46	=46
8E- 8e-L	[4g [4ee-
8D- 8d-J	.
8C 8cL	16g] 16ee-LL]
.	16e-
8BB- 8B-J	16g
.	16dd-JJ
=47	=47
8AA- 8A-L	8a- 8cc
8E- 8A- 8cJ	4a- 4cc
8EE-L	.
8E- 8A- 8cJ	8cc 8ee-
=48	=48
8AA-L	16bn (16ffLK
.	8cc 8ee-)
8E- 8A- 8cJ	.
.	16b (16ffJk
8EE-L	16cc 16ee-LL)
.	16b (16ffJ
8E- 8A- 8cJ	8cc 8ee-J)
=49	=49
8DD-L	16een (16bb-LK
.	8ff 8aa-)
8F 8A- 8d-J	.
.	16ee (16bb-Jk
8D- 8d-L	16ff 16aa-LL)
.	16ff 16aa-
8D- 8d-J	16ff 16gg 16bb-
.	[16ee [16gg [16cccJJ
=50	=50
*	*^
8C 8cL	4ee] 4gg] 4ccc_	16r
.	.	16ccLL
8GG 8GJ	.	16een
.	.	16ggJJ
8CC 8C	8cccL	8ccc]
8r	16ggL	8r
.	16aa-JJ	.
*	*v	*v
=51	=51
8DD- 8D-L	16een (16bb-LK
.	8ff 8aa-)
8F 8A- 8d-J	.
.	16ee (16bb-Jk
8DD- 8D-L	16ff 16aa-LL)
.	16ee (16bb-
8F 8A- 8d-J	16ff 16aa-)
.	[16cc [16ee-JJ
=52	=52
8AA- 8A-L	16cc] 16ee-LL]
.	16dd- 16ff
8E- 8A- 8cJ	16cc 16ee-
.	16b- 16dd-JJ
8AA- 8A-L	16a- 16ccLK
.	8cc 8ee-
8E- 8A- 8cJ	.
.	16cc 16ee-Jk
=53	=53
8EE- 8E-L	16an (16ee-LK
.	8b- 8dd-)
8E- 8G 8d-J	.
.	16a (16ee-Jk
8EE- 8E-L	16b- 16dd-LL)
.	16d- 16g 16ccJ
8EE- 8E-J	8d- 8g 8b-J
=54	=54
8AA- 8A-L	4c 4a-
8EE- 8E-J	.
8AAA- 8AA-	8a- 8cc 8ee- 8aa-
8r	8r
=55	=55
*k[b-e-a-d-g-]	*k[b-e-a-d-g-]
8d-L	8dd-L
[8d-J	[8dd-J
16d-LL]	16dd-LL]
16A-	16a-
16d-	16dd-
16e-JJ	16ee-JJ
=56	=56
*	*^
2r	8ffL	8fL
.	[8ffJ	[8fJ
.	16ffLL]	16fLL]
.	16a-	16A-
.	16dd-	16d-
.	16ffJJ	16fJJ
=57	=57	=57
4r	16cc 16gg- 16aa-LK	4a-
.	8ee- 8gg- 8ccc	.
.	[16cc [16gg- (16aa-Jk	.
8AA- 8A-L	16cc] 16gg-] 16bb-LL)	4r
.	16cc 16gg- 16aa-J	.
8AA- 8A-J	8g- 8a- 8ccJ	.
*	*v	*v
=58	=58
8DD- 8D-L	8f 8a- 8dd-
8DD- 8D-J	8r
8EE- 8E-L	8r
8FF 8FJ	16a-LL
.	16anJJ
=59!|:	=59!|:
*>D	*>D
8GG- 8G-L	16b-LK
.	8gg-
8B- 8d- 8g-J	.
.	16ee-Jk
8E- 8e-L	16anLK
.	8gg-
8En 8enJ	.
.	16ee-Jk
=60	=60
8F 8fL	16a-LL
.	16dd-
8A- 8d- 8fJ	16ff
.	[16bb-JJ
8D- 8d-L	16bb-LL]
.	16aa-
8A- 8d- 8fJ	16ff
.	16dd-JJ
=61	=61
8AA- 8A-L	16ccLL
.	16aa-
8A- 8c 8g-J	16ee-
.	16ccJJ
8E- 8e-L	16b-LK
.	8cc
8En 8enJ	.
.	16a-Jk
=62	=62
8F 8fL	16dd-LL
.	16dd-
8D- 8d-J	16ff
.	16aa-JJ
8AA- 8A-L	16ddd-LL
.	16bb-
8FF 8FJ	16aa-
.	16ffJJ
=63	=63
8GG- 8G-L	16b-LK
.	8gg-
8B- 8d- 8g-J	.
.	16ee-Jk
8E- 8e-L	16anLK
.	8gg-
8En 8enJ	.
.	16ee-Jk
=64	=64
8F 8fL	16a-LL
.	16dd-
8A- 8d- 8fJ	16ff
.	[16bb-JJ
8D- 8d-L	16bb-LL]
.	16aa-
8A- 8d- 8fJ	16ff
.	16dd-JJ
=65	=65
8BB- 8B-L	16ee-LL
.	16ff
8d- 8e- 8gnJ	16ee-
.	16dd-JJ
8EE- 8E-L	16ccLK
.	8dd-
8d- 8e- 8gJ	.
.	16b-Jk
=66	=66
8A- 8c 8e-L	8a-L
16DnL	16bn (16ffL
16E-JJ	16cc 16ee-JJ)
8AA-L	8cc 8aa-L
8F 8d-J	8a- 8cc-J
=67	=67
*	*^
8GG- 8G-L	16b-LK	4b-
.	8gg-	.
8B- 8d- 8g-J	.	.
.	16ee-Jk	.
8E- 8e-L	16anLK	4an
.	8gg-	.
8En 8enJ	.	.
.	16ee-Jk	.
*	*v	*v
=68	=68
8F 8fL	16r
.	16a-LL
8A- 8d- 8fJ	16dd-
.	16ffJJ
8D- 8d-L	16bb-LL
.	16aa-
8A- 8d- 8fJ	16ff
.	16dd-JJ
=69	=69
8AA- 8A-L	16ccLL
.	16aa-
8A- 8c 8g-J	16ee-
.	16ccJJ
8E- 8e-L	16b-LK
.	8cc
8En 8enJ	.
.	16a-Jk
=70	=70
*	*^
8F 8fL	4r	16r
.	.	16dd-LL
8D- 8d-J	.	16ff
.	.	16aa-JJ
8AA- 8A-L	16ddd-LL	8ffL
.	16bb-	.
8FF 8FJ	16aa-	8cc-J
.	16ffJJ	.
=71	=71	=71
8GG- 8G-L	16b-LK	4b-
.	8gg-	.
8BB- 8B-J	.	.
.	16ee-Jk	.
8E- 8e-L	16anLK	4an
.	8gg-	.
8G- 8g-J	.	.
.	16ee-Jk	.
*	*v	*v
=72	=72
8F 8fL	16r
.	16a-LL
8D- 8d-J	16dd-
.	16ffJJ
8AA- 8A-L	16bb-LL
.	16aa-
8D- 8d-J	16ff
.	16a-JJ
=73	=73
*>D1	*>D1
*	*^
8BB- 8B-L	16gnLK	4gn
.	8.b- 8.dd-J	.
8EE- 8E-J	.	.
4AAA- 4AA-	16g-LK	8.g-L
.	8cc 8ee-	.
.	[16dd-Jk	[16fJk
*	*v	*v
=74	=74
8DD- 8D-L	8f] 8dd-L]
8D- 8d-J	16ffL
.	16dd-JJ
8AA- 8A-L	16ee-LL
.	16ff
8FF 8FJ	16a-
.	16anJJ
=75:|!	=75:|!
*>D2	*>D2
*	*^
8BB- 8B-L	16gnLK	4gn
.	8.b- 8.dd-J	.
8EE- 8E-J	.	.
4AAA- 4AA-	16g-LK	8.g-L
.	8cc 8ee-	.
.	16dd-Jk	16fJk
*	*v	*v
=76	=76
8DD- 8D-L	[4f [4dd-
8AA-J	.
8DD-	16f] 16dd-LL]
.	16a- 16aa-
8r	16b- 16bb-
.	16bn 16bbnJJ
=77!|:	=77!|:
*>E	*>E
8E- 8e-L	8cc 8gg- 8cccL
8A- 8c 8g-J	16a- 16aa-L
.	[16b- [16gg- [16bb-JJ
8AA- 8A-L	4b-] 4gg-] 4bb-]
8A- 8c 8g-J	.
=78	=78
8EE- 8E-L	8cc 8gg- 8cccL
8A- 8c 8g-J	16a- 16aa-L
.	16b- [16gg- [16bb-JJ
16EE- 16E-LL	16b- 16gg-] 16bb-LL]
16AA- 16A-	16a- 16aa-
16GGn 16Gn	16b- 16bb-
16GG- 16G-JJ	16cc 16cccJJ
=79	=79
8FF 8FL	8dd- 8ff 8ddd-L
8A- 8d- 8fJ	16a- 16ff 16aa-L
.	[16b- [16ff [16bb-JJ
8D- 8d-L	4b-] 4ff] 4bb-]
8A- 8d- 8fJ	.
=80	=80
8FF 8FL	8dd- 8ff 8ddd-L
8A- 8d- 8fJ	16a- 16ff 16aa-L
.	[16b- [16ff [16bb-JJ
8D- 8d-L	4b-] 4ff] 4bb-]
8Dn 8dnJ	.
=81	=81
8E- 8e-L	8r
8A- 8c 8g-J	16bb-LL
.	[16cc [16gg- [16aa-JJ
8AA- 8A-L	4cc] 4gg-] 4aa-]
8A- 8c 8g-J	.
=82	=82
8C 8cL	8r
8A- 8c 8g-J	16bb-LL
.	[16cc [16gg- [16aa-JJ
8AA- 8A-L	4cc] 4gg-] 4aa-]
8A- 8c 8g-J	.
=83	=83
8D- 8d-L	8r
8A- 8d- 8fJ	16bb-LL
.	[16dd- [16ff [16aa-JJ
8AA- 8A-L	4dd-] 4ff] 4aa-]
8A- 8d- 8fJ	.
=84	=84
8D- 8d-L	8r
8A- 8d- 8fJ	16bb-LL
.	[16dd- [16ff [16aa-JJ
8F 8fL	16dd-] 16ff] 16aa-LL]
.	16a- 16aa-
8F- 8f-J	16b- 16bb-
.	16bn 16bbnJJ
=85	=85
8E- 8e-L	8cc 8gg- 8cccL
8A- 8c 8g-J	16a- 16aa-L
.	[16b- [16gg- [16bb-JJ
8AA- 8A-L	4b-] 4gg-] 4bb-]
8A- 8c 8g-J	.
=86	=86
8EE- 8E-L	8cc 8gg- 8cccL
8A- 8c 8g-J	16a- 16aa-L
.	[16b- [16gg- [16bb-JJ
16EE- 16E-LL	16b-] 16gg-] 16bb-LL]
16AA- 16A-	16a- 16aa-
16GGn 16Gn	16b- 16bb-
16GG- 16G-JJ	16cc 16cccJJ
=87	=87
8FF 8FL	8dd- 8ff 8ddd-L
8A- 8d- 8fJ	16a- 16ff 16aa-L
.	[16b- [16ff [16bb-JJ
8D- 8d-L	4b-] 4ff] 4bb-]
8A- 8d- 8fJ	.
=88	=88
*	*^
8F 8fL	4r	16r
.	.	16dd-LL
8D- 8d-J	.	16ff
.	.	16aa-JJ
8AA- 8A-L	16ddd-LL	8ffL
.	16bb-	.
8FF 8FJ	16aa-	8cc-J
.	16ffJJ	.
=89	=89	=89
8GG- 8G-L	16b-LK	4b-
.	8gg-	.
8BB- 8B-J	.	.
.	16ee-Jk	.
8E- 8e-L	16anLK	4an
.	8gg-	.
8G- 8g-J	.	.
.	16ee-Jk	.
*	*v	*v
=90	=90
8F 8fL	16r
.	16a-LL
8D- 8d-J	16dd-
.	16ffJJ
8AA- 8A-L	16bb-LL
.	16aa-
8D- 8d-J	16ff
.	16a-JJ
=91	=91
*>E1	*>E1
*	*^
8BB- 8B-L	16gnLK	4gn
.	8.b- 8.dd-J	.
8EE- 8E-J	.	.
4AAA- 4AA-	16g-LK	8.g-L
.	8cc 8ee-	.
.	16dd-Jk	16fJk
*	*v	*v
=92	=92
8DD- 8D-L	[4f [4dd-
8AA- 8A-J	.
8F 8fL	16f] 16dd-LL]
.	16a- 16aa-
8F- 8f-J	16b- 16bb-
.	16bn 16bbnJJ
=93:|!	=93:|!
*>E2	*>E2
*	*^
8BB- 8B-L	16gnLK	4gn
.	8.b- 8.dd-J	.
8EE- 8E-J	.	.
4AAA- 4AA-	16g-LK	8.g-L
.	8cc 8ee-	.
.	16dd-Jk	16fJk
*	*v	*v
=94	=94
8DD- 8D-L	4f 4dd-
8AA-J	.
8DD-	8dd- 8ff 8aa- 8ddd-
8r	8r
==	==
*-	*-
!!!ENC: Craig Stuart Sapp
!!!END: 2004/11/28/
